cba/assets/calendar.svg

<?xml version="1.0" encoding="iso-8859-1"?>
<!-- Generator: Adobe Illustrator 18.0.0, SVG Export Plug-In . SVG Version: 6.00 Build 0)  -->
<!DOCTYPE svg PUBLIC "-//W3C//DTD SVG 1.1//EN" "http://www.w3.org/Graphics/SVG/1.1/DTD/svg11.dtd">
<svg version="1.1" id="Capa_1" xmlns="http://www.w3.org/2000/svg" xmlns:xlink="http://www.w3.org/1999/xlink" x="0px" y="0px"
	 viewBox="0 0 512 512" style="enable-background:new 0 0 512 512;" xml:space="preserve">
<g>
	<path d="M480,80h-80V48c0-17.672-14.328-32-32-32c-17.672,0-32,14.328-32,32v32H176V48c0-17.672-14.328-32-32-32
		c-17.672,0-32,14.328-32,32v32H32C14.326,80,0,94.326,0,112v32h512v-32C512,94.326,497.674,80,480,80z"/>
	<path d="M0,464c0,17.674,14.326,32,32,32h448c17.674,0,32-14.326,32-32V176H0V464z M352,240h64v64h-64V240z M224,240h64v64h-64V240
		z M224,368h64v64h-64V368z M96,240h64v64H96V240z M96,368h64v64H96V368z"/>
</g>
<g>
</g>
<g>
</g>
<g>
</g>
<g>
</g>
<g>
</g>
<g>
</g>
<g>
</g>
<g>
</g>
<g>
</g>
<g>
</g>
<g>
</g>
<g>
</g>
<g>
</g>
<g>
</g>
<g>
</g>
</svg>

<svg width="512" height="512" viewBox="0 0 512 512" fill="none" xmlns="http://www.w3.org/2000/svg">
<path d="M480 80H400V48C400 30.328 385.672 16 368 16C350.328 16 336 30.328 336 48V80H176V48C176 30.328 161.672 16 144 16C126.328 16 112 30.328 112 48V80H32C14.326 80 0 94.326 0 112V144H512V112C512 94.326 497.674 80 480 80Z" fill="#F7931E"/>
<path d="M0 464C0 481.674 14.326 496 32 496H480C497.674 496 512 481.674 512 464V176H0V464ZM352 240H416V304H352V240ZM224 240H288V304H224V240ZM224 368H288V432H224V368ZM96 240H160V304H96V240ZM96 368H160V432H96V368Z" fill="#F7931E"/>
</svg>
